src/pos-icons/hat-fedora.svg

<svg height="24" viewBox="0 0 24 24" width="24" xmlns="http://www.w3.org/2000/svg"><path d="m19.11 11.92c.02-.21.03-.42.03-.63 0-3.43-1.43-7.15-2.86-7.15s-2.86 1.43-4.28 1.43c-1.43 0-2.86-1.43-4.29-1.43s-2.85 3.65-2.85 7.15c0 .21 0 .42.02.63 2.34.53 4.72.8 7.12.79 2.45 0 4.83-.27 7.11-.79m-15.66 6.26c5.55 1.67 11.51 1.68 17.09 0 .42-.14.79-.41 1.05-.77s.41-.8.41-1.24c0-.45-.14-.88-.39-1.25-.26-.36-.61-.63-1.05-.78-2.7.86-5.56 1.31-8.56 1.31s-5.87-.45-8.57-1.31c-.43.15-.78.43-1.04.79-.25.36-.39.79-.39 1.24 0 .94.61 1.73 1.45 2.01z"/></svg>

<?xml version="1.0" encoding="UTF-8"?><!DOCTYPE svg PUBLIC "-//W3C//DTD SVG 1.1//EN" "http://www.w3.org/Graphics/SVG/1.1/DTD/svg11.dtd"><svg xmlns="http://www.w3.org/2000/svg" xmlns:xlink="http://www.w3.org/1999/xlink" version="1.1" id="mdi-hat-fedora" width="24" height="24" viewBox="0 0 24 24"><path d="M19.11,11.92C19.13,11.71 19.14,11.5 19.14,11.29C19.14,7.86 17.71,4.14 16.28,4.14C14.85,4.14 13.42,5.57 12,5.57C10.57,5.57 9.14,4.14 7.71,4.14C6.28,4.14 4.86,7.79 4.86,11.29C4.86,11.5 4.86,11.71 4.88,11.92C7.22,12.45 9.6,12.72 12,12.71C14.45,12.71 16.83,12.44 19.11,11.92M3.45,18.18C9,19.85 14.96,19.86 20.54,18.18C20.96,18.04 21.33,17.77 21.59,17.41C21.85,17.05 22,16.61 22,16.17C22,15.72 21.86,15.29 21.61,14.92C21.35,14.56 21,14.29 20.56,14.14C17.86,15 15,15.45 12,15.45C9,15.45 6.13,15 3.43,14.14C3,14.29 2.65,14.57 2.39,14.93C2.14,15.29 2,15.72 2,16.17C2,17.11 2.61,17.9 3.45,18.18V18.18Z" /></svg>
